X:1
T:Gnglt/sknklt frn Hlsingland
R:Gnglt, Sknklt
Z:Jonas Brunskog, 28/7 2008
O:Hlsingland
M:2/4
L:1/8
K:G
D/G/|:B2 GD/G/|B2  GD/G/|BG (D/G/)B/d/|g3 B/d/|
cc/B/ Ac/e/|cc/B/ AA/G/|FD F/D/F/A/|[1 G3 D/G/:|[2G3 B/c/ |]
|:dd/B/ dg|e>d (c/d/)c/B/|(A/B/)A/G/ (F/G/)A/B/|c3 A/B/|
cc/B/ ce|c>B (A/B/)A/G/|F/A/D (F/D/)F/A/|[1G3 B/c/ :|[2 G4|]
